resources/images/my-account.svg

<?xml version="1.0" encoding="UTF-8"?>
<svg width="24px" height="24px" viewBox="0 0 24 24" version="1.1" xmlns="http://www.w3.org/2000/svg" xmlns:xlink="http://www.w3.org/1999/xlink">
    <!-- Generator: sketchtool 55.2 (78181) - https://sketchapp.com -->
    <title>Icons / My Account</title>
    <desc>Created with sketchtool.</desc>
    <g id="desktop" stroke="none" stroke-width="1" fill="none" fill-rule="evenodd">
        <g id="icons" transform="translate(-175.000000, -44.000000)" fill-rule="nonzero">
            <g id="round-account_circle-24px" transform="translate(175.000000, 44.000000)">
                <path d="M12.1684381,0.648438134 C18.5274781,0.648438134 23.6884381,5.80939813 23.6884381,12.1684381 C23.6884381,18.5274781 18.5274781,23.6884381 12.1684381,23.6884381 C5.80939813,23.6884381 0.648438134,18.5274781 0.648438134,12.1684381 C0.648438134,5.80939813 5.80939813,0.648438134 12.1684381,0.648438134 Z M12.1684381,2.56843813 C6.86923813,2.56843813 2.56843813,6.86923813 2.56843813,12.1684381 C2.56843813,17.4676381 6.86923813,21.7684381 12.1684381,21.7684381 C17.4676381,21.7684381 21.7684381,17.4676381 21.7684381,12.1684381 C21.7684381,6.86923813 17.4676381,2.56843813 12.1684381,2.56843813 Z" id="Shape" fill="#0E69FF"></path>
                <path d="M12.1684381,4.62085193 C14.1467002,4.62085193 15.7436105,6.21776227 15.7436105,8.19602434 C15.7436105,10.1742864 14.1467002,11.7711968 12.1684381,11.7711968 C10.1901761,11.7711968 8.59326572,10.1742864 8.59326572,8.19602434 C8.59326572,6.21776227 10.1901761,4.62085193 12.1684381,4.62085193 Z" id="Path" fill="#FB5C41"></path>
                <path d="M12.1684381,20.5105071 C9.35464503,20.5105071 6.86725193,19.0577386 5.41533469,16.8558864 C5.4491002,14.5972854 9.91740365,13.3601623 12.1684381,13.3601623 C14.4082174,13.3601623 18.8877761,14.5972854 18.9215416,16.8558864 C17.4696243,19.0577386 14.9822312,20.5105071 12.1684381,20.5105071 Z" id="Path" fill="#0E69FF"></path>
            </g>
        </g>
    </g>
</svg>

<svg width="24" height="24" xmlns="http://www.w3.org/2000/svg"><g fill-rule="nonzero" fill="none"><path d="M12.168.648c6.36 0 11.52 5.161 11.52 11.52 0 6.36-5.16 11.52-11.52 11.52-6.359 0-11.52-5.16-11.52-11.52C.648 5.81 5.81.648 12.168.648zm0 1.92c-5.299 0-9.6 4.301-9.6 9.6 0 5.3 4.301 9.6 9.6 9.6 5.3 0 9.6-4.3 9.6-9.6 0-5.299-4.3-9.6-9.6-9.6z" fill="#0E69FF"/><path d="M12.168 4.62a3.57 3.57 0 013.576 3.576 3.57 3.57 0 01-3.576 3.575 3.57 3.57 0 01-3.575-3.575 3.57 3.57 0 013.575-3.575z" fill="#FB5C41"/><path d="M12.168 20.51c-2.813 0-5.3-1.452-6.753-3.654.034-2.259 4.502-3.496 6.753-3.496 2.24 0 6.72 1.237 6.754 3.496-1.452 2.202-3.94 3.655-6.754 3.655z" fill="#0E69FF"/></g></svg>
